icons/svgs/calendar-times-outline.svg

<svg width="24" height="24" viewBox="0 0 24 24" fill="none" xmlns="http://www.w3.org/2000/svg">
<path d="M8.25 2C8.75781 2 9.1875 2.42969 9.1875 2.9375V4.5H14.8125V2.9375C14.8125 2.42969 15.2031 2 15.75 2C16.2578 2 16.6875 2.42969 16.6875 2.9375V4.5H18.25C19.6172 4.5 20.75 5.63281 20.75 7V7.625V9.5V19.5C20.75 20.9062 19.6172 22 18.25 22H5.75C4.34375 22 3.25 20.9062 3.25 19.5V9.5V7.625V7C3.25 5.63281 4.34375 4.5 5.75 4.5H7.3125V2.9375C7.3125 2.42969 7.70312 2 8.25 2ZM18.875 9.5H5.125V19.5C5.125 19.8516 5.39844 20.125 5.75 20.125H18.25C18.5625 20.125 18.875 19.8516 18.875 19.5V9.5ZM15.1641 12.9766L13.3281 14.8125L15.1641 16.6484C15.5156 17.0391 15.5156 17.625 15.1641 17.9766C14.7734 18.3672 14.1875 18.3672 13.8359 17.9766L12 16.1406L10.1641 17.9766C9.77344 18.3672 9.1875 18.3672 8.83594 17.9766C8.44531 17.625 8.44531 17.0391 8.83594 16.6484L10.6719 14.8125L8.83594 12.9766C8.44531 12.625 8.44531 12.0391 8.83594 11.6875C9.1875 11.2969 9.77344 11.2969 10.1641 11.6875L12 13.5234L13.8359 11.6875C14.1875 11.2969 14.7734 11.2969 15.1641 11.6875C15.5156 12.0391 15.5156 12.625 15.1641 12.9766Z" fill="black"/>
</svg>

<svg xmlns="http://www.w3.org/2000/svg" width="24" height="24" fill="currentColor" class="icon-calendar-times-outline" viewBox="0 0 24 24">
  <mask id="a" width="18" height="20" x="3" y="2" maskUnits="userSpaceOnUse" style="mask-type:alpha">
    <path d="M8.25 2a.95.95 0 0 1 .938.938V4.5h5.624V2.938c0-.508.391-.938.938-.938a.95.95 0 0 1 .938.938V4.5h1.562c1.367 0 2.5 1.133 2.5 2.5v12.5c0 1.406-1.133 2.5-2.5 2.5H5.75a2.47 2.47 0 0 1-2.5-2.5V7c0-1.367 1.094-2.5 2.5-2.5h1.563V2.938c0-.508.39-.938.937-.938m10.625 7.5H5.125v10c0 .352.273.625.625.625h12.5a.64.64 0 0 0 .625-.625zm-3.71 3.477-1.837 1.835 1.836 1.836c.352.391.352.977 0 1.329-.39.39-.976.39-1.328 0L12 16.14l-1.836 1.836c-.39.39-.976.39-1.328 0-.39-.352-.39-.938 0-1.329l1.836-1.835-1.836-1.836a.856.856 0 0 1 0-1.29c.351-.39.937-.39 1.328 0L12 13.524l1.836-1.835c.351-.391.937-.391 1.328 0a.92.92 0 0 1 0 1.289"/>
  </mask>
  <g mask="url(#a)">
    <path d="M0 0h24v24H0z"/>
  </g>
</svg>
